X:4523
L:1/8
M:4/4
K:C
[M:6/8][K:D]!p! ug ea ue e g ec .gueg a a e ue f ag bac e da[Q:1/8=140]"^airily".f/e/ | dcA ABA | 
 =cAF GFG | AFD ECE | D3 D2 f/e/ | dcA/B/ =c2 d | =cAF G2 B | AGF EDE | D3 D2 || F/G/ | 
 Add/e/ fef | gfe/d/ cAG | Adf e/d/ce | d2 e f2 f/e/ | dcA ABA | =cAF GFG | AGF EDE | D3- D3 |]

